SFASUI/src/images/field.svg

<svg width="83" height="57" viewBox="0 0 83 57" fill="none" xmlns="http://www.w3.org/2000/svg">
<path d="M80.21 2H2.79C2.3537 2 2 2.33898 2 2.75714V54.2429C2 54.661 2.3537 55 2.79 55H80.21C80.6463 55 81 54.661 81 54.2429V2.75714C81 2.33898 80.6463 2 80.21 2Z" stroke="#33CCCC" stroke-width="2.5" stroke-linecap="round" stroke-linejoin="round"/>
<path d="M41.5 2V55" stroke="#33CCCC" stroke-width="2.5" stroke-linecap="round" stroke-linejoin="round"/>
<path d="M41.5 39.8572C48.0446 39.8572 53.35 34.7724 53.35 28.5C53.35 22.2276 48.0446 17.1429 41.5 17.1429C34.9554 17.1429 29.65 22.2276 29.65 28.5C29.65 34.7724 34.9554 39.8572 41.5 39.8572Z" stroke="#33CCCC" stroke-width="2.5" stroke-linecap="round" stroke-linejoin="round"/>
<path d="M2 17.1429H13.06C13.2695 17.1429 13.4705 17.2227 13.6186 17.3646C13.7668 17.5066 13.85 17.6992 13.85 17.9V39.1C13.85 39.3008 13.7668 39.4934 13.6186 39.6354C13.4705 39.7774 13.2695 39.8572 13.06 39.8572H2" stroke="#33CCCC" stroke-width="2.5" stroke-linecap="round" stroke-linejoin="round"/>
<path d="M81 39.8572H69.94C69.7305 39.8572 69.5296 39.7774 69.3814 39.6354C69.2333 39.4934 69.15 39.3008 69.15 39.1V17.9C69.15 17.6992 69.2333 17.5066 69.3814 17.3646C69.5296 17.2227 69.7305 17.1429 69.94 17.1429H81" stroke="#33CCCC" stroke-width="2.5" stroke-linecap="round" stroke-linejoin="round"/>
</svg>

<svg width="83" height="57" fill="none" xmlns="http://www.w3.org/2000/svg"><path d="M80.21 2H2.79c-.436 0-.79.339-.79.757v51.486c0 .418.354.757.79.757h77.42c.436 0 .79-.339.79-.757V2.757C81 2.34 80.646 2 80.21 2ZM41.5 2v53" stroke="#3CC" stroke-width="2.5" stroke-linecap="round" stroke-linejoin="round"/><path d="M41.5 39.857c6.545 0 11.85-5.085 11.85-11.357 0-6.272-5.305-11.357-11.85-11.357S29.65 22.228 29.65 28.5c0 6.272 5.305 11.357 11.85 11.357ZM2 17.143h11.06c.21 0 .41.08.559.222a.741.741 0 0 1 .231.535v21.2c0 .2-.083.393-.231.535a.808.808 0 0 1-.559.222H2M81 39.857H69.94c-.21 0-.41-.08-.559-.222a.742.742 0 0 1-.231-.535V17.9c0-.2.083-.393.231-.535a.808.808 0 0 1 .559-.222H81" stroke="#3CC" stroke-width="2.5" stroke-linecap="round" stroke-linejoin="round"/></svg>
